src/images/about-bg.svg

<svg width="417" height="396" viewBox="0 0 417 396" fill="none" xmlns="http://www.w3.org/2000/svg">
<path fill-rule="evenodd" clip-rule="evenodd" d="M208.695 56.8795C246.049 60.728 277.269 18.5183 314.424 23.9621C354.642 29.8546 408.577 47.3604 416.192 87.2809C424.908 132.97 360.48 161.896 349.352 207.058C341.951 237.093 381.496 271.149 364.515 297.005C347.174 323.408 301.532 304.668 274.503 321.021C246.572 337.919 239.721 381.12 208.695 391.275C177.115 401.61 138.399 394.591 112.218 374.132C86.287 353.869 90.6578 313.163 73.1101 285.325C54.5729 255.917 17.3165 240.223 6.90262 207.058C-4.58641 170.469 -1.19344 129.735 13.0769 94.138C28.3055 56.1507 49.3806 8.45663 89.5897 0.798173C133.446 -7.55488 164.285 52.3041 208.695 56.8795Z" fill="#F9EAEF" fill-opacity="0.2"/>
<g opacity="0.2">
<path d="M201.412 129.432C197.061 130.45 194.345 131.901 191.414 134.833C188.143 138.073 186.013 141.807 184.871 146.281C184.285 148.627 184.347 154.768 184.964 157.699C185.242 158.965 185.581 160.816 185.674 161.773L185.89 163.501L184.409 163.717C175.799 164.92 167.652 167.883 161.171 172.203C158.024 174.302 153.426 178.529 151.698 180.875C150.926 181.924 150.463 182.325 150.216 182.109C149.383 181.399 144.816 179.887 142.224 179.393C138.891 178.807 137.718 178.961 135.774 180.196C134.139 181.245 132.719 183.745 132.102 186.645C131.516 189.484 131.917 198.31 132.873 203.556C133.583 207.445 135.651 216.147 136.361 218.184C136.607 218.832 136.299 219.665 134.602 222.967L132.596 226.979L130.898 226.763C128.646 226.516 123.06 226.454 122.412 226.701C121.641 227.009 120.962 228.614 121.178 229.602C121.548 231.299 122.227 231.546 126.609 231.793C128.831 231.916 130.713 232.07 130.775 232.163C130.868 232.225 130.775 232.688 130.59 233.181C130.034 234.57 129.047 240.927 129.047 242.933C129.047 244.723 129.016 244.754 128.059 245.093C127.504 245.309 125.838 246.05 124.387 246.759C121.733 248.117 121.023 248.858 121.023 250.308C121.023 251.111 122.628 252.746 123.43 252.746C123.801 252.746 125.22 252.191 126.609 251.512C129.325 250.216 129.633 250.247 129.664 251.82C129.695 252.252 130.22 254.104 130.837 255.986L131.979 259.35L129.325 262.004C127.442 263.886 126.424 265.183 125.714 266.664C121.949 274.471 123.832 280.674 131.053 284.254C134.879 286.167 138.49 286.784 145.248 286.815C151.729 286.815 153.796 286.383 158.61 284.038L161.511 282.649L165.091 283.575C174.318 285.951 181.508 286.815 192.154 286.815C202.801 286.815 209.991 285.951 219.218 283.575L222.798 282.649L225.698 284.038C230.513 286.383 232.58 286.815 239.061 286.815C245.788 286.784 249.275 286.167 253.194 284.284C260.446 280.736 262.359 274.502 258.595 266.664C257.885 265.183 256.866 263.886 254.953 261.973L252.268 259.288L252.886 257.807C253.194 256.974 253.811 254.999 254.213 253.394C254.614 251.79 255.015 250.432 255.077 250.37C255.138 250.277 256.311 250.802 257.7 251.481C259.057 252.191 260.477 252.746 260.847 252.746C261.65 252.746 263.285 251.142 263.285 250.308C263.285 248.858 262.575 248.117 259.921 246.759C258.471 246.05 256.805 245.309 256.28 245.093C255.293 244.754 255.262 244.723 255.262 242.933C255.262 240.927 254.274 234.57 253.719 233.181C253.534 232.688 253.441 232.225 253.534 232.163C253.595 232.07 255.478 231.916 257.7 231.793C262.082 231.546 262.761 231.299 263.131 229.602C263.347 228.614 262.668 227.009 261.896 226.701C261.248 226.454 255.663 226.516 253.41 226.763L251.713 226.979L249.738 222.998L247.794 219.017L248.905 214.974C253.657 197.57 253.935 185.349 249.584 180.998C247.794 179.208 246.096 178.776 242.887 179.27C240.295 179.671 237.055 180.659 234.987 181.708L233.691 182.387L232.611 180.875C230.852 178.499 226.192 174.24 223.075 172.203C217.798 168.685 210.824 165.784 204.591 164.55L201.721 163.964L201.381 160.6C201.165 158.749 200.795 156.064 200.486 154.613C199.9 151.713 200.023 149.984 200.918 148.195C201.721 146.59 203.449 145.14 204.807 144.862C206.72 144.522 210.022 145.695 213.231 147.886C215.206 149.244 216.626 149.738 218.57 149.738C224.433 149.738 228.075 143.72 225.482 138.381C224.834 137.054 224.155 136.314 222.582 135.141C219.959 133.197 215.021 130.728 212.059 129.926C209.065 129.093 203.912 128.846 201.412 129.432ZM211.719 135.357C214.404 136.252 218.662 138.597 220.175 140.017C221.193 141.035 221.286 142.455 220.36 143.627C219.434 144.8 217.86 144.738 216.039 143.411C213.941 141.93 209.991 140.171 207.893 139.77C203.048 138.875 198.943 140.881 196.505 145.325C194.685 148.688 194.438 151.095 195.364 156.002C195.703 157.699 196.073 160.014 196.166 161.156L196.382 163.254H193.759H191.136L190.951 161.464C190.827 160.508 190.457 158.162 190.087 156.311C188.976 150.293 189.809 145.664 192.802 141.251C197.123 134.925 203.973 132.796 211.719 135.357ZM199.19 168.963C211.071 170.506 221.44 175.721 227.828 183.343L229.031 184.794L226.779 186.121C225.575 186.831 222.921 188.528 220.915 189.855L217.274 192.293L215.052 191.398C207.275 188.188 199.375 186.831 190.148 187.108C182.619 187.324 176.231 188.62 169.75 191.213L167.066 192.262L164.196 190.318C162.591 189.238 159.937 187.54 158.302 186.553L155.308 184.763L156.203 183.652C158.579 180.659 162.313 177.573 166.387 175.166C175.429 169.796 187.803 167.482 199.19 168.963ZM142.532 184.856C143.952 185.195 145.958 185.843 147.007 186.337C149.97 187.695 156.666 191.614 161.573 194.885C164.288 196.706 166.263 197.817 166.757 197.817C167.189 197.817 168.578 197.384 169.812 196.86C177.805 193.434 185.118 192.077 193.852 192.354C201.474 192.601 206.535 193.65 213.447 196.459C215.33 197.199 217.243 197.817 217.737 197.817C218.292 197.817 219.712 197.045 221.872 195.533C232.858 187.972 243.165 183.189 245.664 184.516C247.238 185.38 247.855 191.922 246.961 198.742C246.374 203.063 244.893 209.944 243.628 214.265C241.992 219.85 241.992 219.788 243.813 222.998C244.646 224.51 245.572 226.238 245.819 226.855L246.282 227.935L242.702 228.984C238.598 230.157 231.809 233.397 230.142 234.94C228.97 236.051 228.784 236.884 229.402 238.026C230.389 239.909 231.685 239.909 235.08 237.965C239.307 235.527 247.578 232.533 248.195 233.212C248.72 233.829 250.355 242.964 249.985 243.334C249.923 243.396 248.534 243.242 246.93 242.995C243.257 242.47 237.086 242.1 236.036 242.377C235.172 242.593 234.277 243.951 234.277 245.031C234.277 245.402 234.648 246.081 235.141 246.543C235.944 247.346 236.191 247.408 239.678 247.593C243.35 247.809 249.337 248.58 249.676 248.889C249.892 249.136 249.182 252.499 248.38 254.845C247.67 257.036 247.979 256.943 244.615 256.017C242.208 255.338 236.962 255.308 234.432 255.986C225.236 258.363 217.953 266.972 218.632 274.625C218.755 275.736 218.909 277.033 219.002 277.465C219.218 278.236 219.156 278.267 215.546 279.069C207.09 281.013 201.782 281.569 192.154 281.569C182.526 281.569 177.218 281.013 168.763 279.069C165.152 278.267 165.091 278.236 165.307 277.465C165.399 277.033 165.554 275.736 165.677 274.625C166.356 266.88 159.196 258.455 149.877 255.986C147.377 255.308 142.131 255.338 139.693 256.017C136.422 256.912 136.638 256.974 136.083 255.308C135.404 253.363 134.602 250.185 134.602 249.444C134.602 248.92 134.941 248.765 136.7 248.488C139.786 247.932 144.075 247.5 146.266 247.5C148.025 247.5 148.334 247.408 149.136 246.605C149.63 246.111 150.031 245.402 150.031 245.031C150.031 243.951 149.136 242.593 148.272 242.377C147.223 242.1 141.051 242.47 137.379 242.995C135.774 243.242 134.386 243.396 134.324 243.334C133.954 242.964 135.589 233.829 136.114 233.212C136.731 232.533 145.001 235.527 149.229 237.965C152.623 239.909 153.92 239.909 154.907 238.026C155.925 236.144 154.845 234.879 150.124 232.472C146.482 230.589 142.656 229.108 139.632 228.367L138.027 227.997L138.49 226.886C138.737 226.238 139.632 224.541 140.465 223.059C141.329 221.547 142.008 219.974 142.008 219.511C142.008 219.017 141.452 216.702 140.743 214.326C139.354 209.45 137.904 202.538 137.348 198.063C136.854 193.805 137.101 187.17 137.811 185.781C138.768 183.992 138.86 183.961 142.532 184.856ZM149.136 261.263C155.864 263.238 161.357 269.935 160.4 275.058C159.999 277.187 156.635 279.872 153.426 280.612L152.654 280.797V276.817C152.654 273.052 152.623 272.805 151.914 272.064C150.864 270.953 149.198 270.953 148.149 272.064C147.501 272.774 147.408 273.144 147.316 276.138C147.192 280.489 147.13 280.767 145.865 281.353C144.97 281.785 144.693 281.785 143.829 281.445C142.409 280.859 142.008 279.594 142.008 275.829C142.008 273.021 141.946 272.62 141.329 271.972C140.372 270.953 138.644 271.015 137.657 272.064C136.947 272.805 136.916 273.052 136.916 276.817V280.797L136.145 280.612C132.873 279.872 129.602 277.279 129.17 275.119C128.615 272.126 129.973 268.762 132.873 265.831C136.33 262.374 140.033 260.8 144.662 260.77C146.328 260.77 148.118 260.955 149.136 261.263ZM243.875 261.263C249.522 262.93 254.675 268.114 255.169 272.65C255.416 274.811 255.046 276.138 253.688 277.588C252.577 278.792 250.046 280.18 248.164 280.612L247.393 280.797V276.817C247.393 273.052 247.362 272.805 246.652 272.064C245.695 271.046 244.029 270.984 243.011 271.941C242.363 272.558 242.301 272.867 242.301 275.798C242.301 279.594 241.9 280.859 240.48 281.445C239.616 281.785 239.338 281.785 238.443 281.353C237.178 280.767 237.116 280.489 236.993 276.138C236.9 273.144 236.808 272.774 236.16 272.064C235.111 270.953 233.444 270.953 232.395 272.064C231.685 272.805 231.654 273.052 231.654 276.817L231.685 280.797L230.883 280.612C229.062 280.211 226.223 278.606 225.205 277.372C223.446 275.335 223.353 272.774 224.896 269.626C226.562 266.139 230.451 262.868 234.493 261.51C237.086 260.615 241.313 260.523 243.875 261.263Z" fill="#F6A6BF"/>
<path d="M160.554 221.918C157.592 222.689 156.172 223.399 155.617 224.387C154.783 225.868 156.049 228.059 157.746 228.059C158.209 228.059 159.381 227.781 160.4 227.411C161.418 227.041 163.393 226.701 164.905 226.609C169.411 226.331 171.633 227.565 173.392 231.361C173.947 232.595 174.688 233.737 175.027 233.922C176.076 234.478 177.187 234.262 178.175 233.305C179.317 232.163 179.255 231.237 177.928 228.522C176.261 225.158 173.484 222.751 170.12 221.764C167.806 221.085 163.424 221.146 160.554 221.918Z" fill="#F6A6BF"/>
<path d="M211.534 221.733C207.307 223.029 203.295 227.472 202.863 231.299C202.739 232.441 202.832 232.749 203.511 233.428C205.054 234.971 207.245 234.169 208.047 231.762C208.603 230.095 210.639 227.812 212.213 227.102C213.941 226.3 217.459 226.331 220.237 227.164C223.755 228.213 224.557 228.244 225.452 227.318C226.254 226.547 226.47 225.312 226.069 224.201C225.791 223.492 223.94 222.627 221.132 221.887C218.323 221.177 213.571 221.085 211.534 221.733Z" fill="#F6A6BF"/>
<path d="M185.365 237.44C182.619 238.767 181.199 241.421 181.878 244.044C182.125 245.093 182.804 246.05 184.686 248.086C186.075 249.537 187.711 251.08 188.328 251.512L189.5 252.283L189.531 256.912C189.531 261.14 189.47 261.695 188.852 262.93C188.451 263.67 187.772 264.535 187.34 264.874C185.643 266.108 182.896 266.108 181.23 264.874C179.595 263.64 179.255 262.806 179.039 259.659C178.854 257.036 178.761 256.604 178.144 256.11C176.971 255.153 175.459 255.246 174.503 256.326C173.886 257.005 173.793 257.437 173.793 259.844C173.793 263.362 174.564 265.553 176.539 267.651C180.52 271.91 186.846 272.28 191.167 268.485L192.216 267.59L192.895 268.299C193.913 269.379 196.259 270.552 198.234 270.953C201.597 271.632 205.239 270.367 207.769 267.651C209.744 265.553 210.516 263.362 210.516 259.844C210.516 257.437 210.423 257.005 209.837 256.326C208.849 255.246 207.337 255.153 206.164 256.11C205.547 256.604 205.455 257.036 205.27 259.659C205.054 262.806 204.714 263.64 203.079 264.874C201.412 266.108 198.666 266.108 196.968 264.874C196.536 264.535 195.857 263.67 195.487 262.93C194.839 261.695 194.777 261.14 194.777 256.912L194.808 252.283L195.981 251.512C196.598 251.08 198.234 249.537 199.622 248.086C201.505 246.05 202.184 245.093 202.43 244.044C203.017 241.791 202.029 239.477 199.9 237.995C198.696 237.162 198.696 237.162 192.494 237.101C187.649 237.039 186.075 237.101 185.365 237.44ZM197.123 242.594C197.4 243.056 192.895 247.5 192.154 247.5C191.414 247.5 186.908 243.056 187.186 242.594C187.34 242.377 188.914 242.254 192.154 242.254C195.395 242.254 196.968 242.377 197.123 242.594Z" fill="#F6A6BF"/>
</g>
</svg>

<svg width="417" height="396" fill="none" xmlns="http://www.w3.org/2000/svg"><path fill-rule="evenodd" clip-rule="evenodd" d="M208.7 56.88c37.35 3.85 68.57-38.36 105.72-32.92 40.22 5.9 94.16 23.4 101.77 63.32 8.72 45.69-55.71 74.62-66.84 119.78-7.4 30.03 32.15 64.09 15.16 89.94-17.34 26.4-62.98 7.67-90 24.02-27.94 16.9-34.79 60.1-65.81 70.25-31.58 10.34-70.3 3.32-96.48-17.14-25.93-20.26-21.56-60.97-39.11-88.8-18.54-29.41-55.8-45.1-66.2-78.27-11.5-36.6-8.1-77.32 6.17-112.92C28.3 56.15 49.38 8.46 89.59.8c43.86-8.35 74.7 51.5 119.1 56.08Z" fill="#F9EAEF" fill-opacity=".2"/><g opacity=".2" fill="#F6A6BF"><path d="M201.41 129.43c-4.35 1.02-7.06 2.47-10 5.4a24.01 24.01 0 0 0-6.54 11.45c-.59 2.35-.52 8.49.1 11.42.27 1.27.61 3.12.7 4.07l.22 1.73-1.48.22c-8.61 1.2-16.76 4.16-23.24 8.48-3.15 2.1-7.74 6.33-9.47 8.68-.77 1.04-1.24 1.44-1.48 1.23-.84-.71-5.4-2.22-8-2.72-3.33-.58-4.5-.43-6.45.8-1.63 1.06-3.05 3.56-3.67 6.46-.58 2.83-.18 11.66.77 16.9.71 3.9 2.78 12.6 3.5 14.63.24.65-.07 1.48-1.77 4.79l-2 4-1.7-.2c-2.25-.25-7.84-.32-8.49-.07-.77.3-1.45 1.91-1.23 2.9.37 1.7 1.05 1.95 5.43 2.2 2.22.12 4.1.27 4.17.36.09.06 0 .53-.19 1.02-.56 1.39-1.54 7.75-1.54 9.75 0 1.8-.03 1.82-1 2.16-.55.22-2.21.96-3.66 1.67-2.66 1.36-3.37 2.1-3.37 3.55 0 .8 1.6 2.44 2.41 2.44.37 0 1.79-.56 3.18-1.24 2.71-1.3 3.02-1.26 3.05.31.03.43.56 2.28 1.18 4.17l1.14 3.36-2.66 2.65c-1.88 1.89-2.9 3.18-3.6 4.66-3.77 7.81-1.89 14.01 5.33 17.6 3.83 1.9 7.44 2.52 14.2 2.56 6.48 0 8.55-.44 13.36-2.78l2.9-1.4 3.58.94c9.23 2.37 16.42 3.24 27.06 3.24 10.65 0 17.84-.87 27.07-3.25l3.58-.92 2.9 1.39c4.81 2.34 6.88 2.77 13.36 2.77 6.73-.03 10.22-.64 14.13-2.53 7.26-3.54 9.17-9.78 5.4-17.62-.7-1.48-1.72-2.77-3.64-4.69l-2.68-2.68.62-1.48c.3-.84.92-2.81 1.32-4.42.4-1.6.8-2.96.87-3.02.06-.1 1.23.43 2.62 1.11 1.36.71 2.78 1.27 3.15 1.27.8 0 2.44-1.6 2.44-2.44 0-1.45-.72-2.2-3.37-3.55a81.03 81.03 0 0 0-3.64-1.67c-.99-.34-1.02-.37-1.02-2.16 0-2-.99-8.36-1.54-9.75-.19-.5-.28-.96-.19-1.02.06-.09 1.95-.24 4.17-.37 4.38-.24 5.06-.5 5.43-2.19.22-.99-.46-2.6-1.23-2.9-.65-.25-6.24-.18-8.49.06l-1.7.22-1.97-3.98-1.95-3.98 1.12-4.05c4.75-17.4 5.03-29.62.67-33.97-1.79-1.8-3.48-2.22-6.7-1.73-2.59.4-5.82 1.39-7.9 2.44l-1.29.68-1.08-1.51c-1.76-2.38-6.42-6.64-9.54-8.68a54.35 54.35 0 0 0-18.48-7.65l-2.87-.59-.34-3.36a80.68 80.68 0 0 0-.9-5.99c-.58-2.9-.46-4.63.44-6.42.8-1.6 2.53-3.05 3.89-3.33 1.91-.34 5.21.83 8.42 3.03 1.98 1.35 3.4 1.85 5.34 1.85 5.86 0 9.5-6.02 6.91-11.36-.65-1.33-1.32-2.07-2.9-3.24a39.38 39.38 0 0 0-10.52-5.21c-3-.84-8.15-1.08-10.65-.5Zm10.3 5.93c2.7.9 6.95 3.24 8.47 4.66a2.6 2.6 0 0 1 .18 3.6c-.93 1.18-2.5 1.12-4.32-.2-2.1-1.49-6.05-3.25-8.15-3.65-4.84-.9-8.95 1.11-11.38 5.55-1.82 3.37-2.07 5.78-1.15 10.68.34 1.7.71 4.01.8 5.16l.22 2.1h-5.24l-.19-1.8c-.12-.95-.5-3.3-.86-5.15-1.11-6.02-.28-10.65 2.71-15.06 4.32-6.32 11.17-8.45 18.92-5.9Zm-12.52 33.6c11.88 1.55 22.25 6.76 28.64 14.38l1.2 1.45-2.25 1.33c-1.2.71-3.86 2.4-5.87 3.73l-3.64 2.44-2.22-.9c-7.78-3.2-15.68-4.56-24.9-4.28a57.33 57.33 0 0 0-20.4 4.1l-2.68 1.05-2.87-1.94c-1.6-1.08-4.26-2.78-5.9-3.77l-3-1.79.9-1.1c2.38-3 6.11-6.09 10.19-8.5 9.04-5.36 21.41-7.68 32.8-6.2Zm-56.66 15.9c1.42.33 3.43.98 4.48 1.48 2.96 1.35 9.66 5.27 14.56 8.54 2.72 1.83 4.7 2.94 5.19 2.94.43 0 1.82-.44 3.05-.96 8-3.43 15.3-4.78 24.04-4.5 7.62.24 12.69 1.29 19.6 4.1 1.88.74 3.8 1.36 4.29 1.36.55 0 1.97-.78 4.13-2.29 10.99-7.56 21.3-12.34 23.8-11.01 1.57.86 2.19 7.4 1.3 14.22-.6 4.32-2.08 11.2-3.34 15.52-1.64 5.59-1.64 5.53.18 8.74a56.96 56.96 0 0 1 2 3.85l.47 1.09-3.58 1.04c-4.1 1.18-10.9 4.42-12.56 5.96-1.17 1.11-1.36 1.94-.74 3.09.99 1.88 2.28 1.88 5.68-.06 4.23-2.44 12.5-5.44 13.11-4.76.53.62 2.16 9.75 1.8 10.12-.07.07-1.46-.09-3.06-.34-3.67-.52-9.84-.89-10.9-.61-.86.21-1.75 1.57-1.75 2.65 0 .37.37 1.05.86 1.51.8.8 1.05.87 4.54 1.05 3.67.22 9.66.99 10 1.3.21.25-.5 3.6-1.3 5.96-.71 2.19-.4 2.1-3.76 1.17-2.41-.68-7.66-.71-10.19-.03-9.2 2.37-16.48 10.98-15.8 18.63.13 1.12.28 2.41.37 2.84.22.78.16.8-3.45 1.6-8.46 1.95-13.77 2.5-23.4 2.5-9.62 0-14.93-.55-23.39-2.5-3.6-.8-3.67-.82-3.45-1.6.09-.43.24-1.72.37-2.83.68-7.75-6.48-16.18-15.8-18.64-2.5-.68-7.75-.65-10.19.03-3.27.9-3.05.95-3.6-.71-.69-1.95-1.49-5.13-1.49-5.87 0-.52.34-.68 2.1-.95 3.09-.56 7.38-.99 9.57-.99 1.75 0 2.06-.1 2.87-.9.49-.49.9-1.2.9-1.57 0-1.08-.9-2.44-1.77-2.65-1.05-.28-7.22.09-10.9.62-1.6.24-2.98.4-3.05.33-.37-.37 1.27-9.5 1.8-10.12.61-.68 8.88 2.32 13.1 4.75 3.4 1.95 4.7 1.95 5.69.07 1.02-1.89-.06-3.15-4.79-5.56a50.4 50.4 0 0 0-10.49-4.1l-1.6-.37.46-1.11c.25-.65 1.14-2.35 1.97-3.83.87-1.51 1.55-3.09 1.55-3.55 0-.5-.56-2.8-1.27-5.18a125.5 125.5 0 0 1-3.4-16.27c-.49-4.25-.24-10.89.47-12.28.96-1.79 1.05-1.82 4.72-.92Zm6.6 76.4c6.73 1.98 12.23 8.68 11.27 13.8-.4 2.13-3.77 4.81-6.97 5.55l-.78.19v-3.98c0-3.77-.03-4.01-.74-4.76a2.54 2.54 0 0 0-3.76 0c-.65.71-.74 1.08-.83 4.08-.13 4.35-.19 4.63-1.45 5.21-.9.44-1.18.44-2.04.1-1.42-.6-1.82-1.86-1.82-5.62 0-2.8-.06-3.21-.68-3.86-.96-1.02-2.69-.96-3.67.1-.71.74-.74.98-.74 4.75v3.98l-.77-.19c-3.28-.74-6.55-3.33-6.98-5.5-.55-2.98.8-6.35 3.7-9.28 3.46-3.46 7.16-5.03 11.8-5.06 1.66 0 3.45.19 4.47.5Zm94.75 0c5.64 1.67 10.8 6.85 11.29 11.39.25 2.16-.12 3.49-1.48 4.94a12.8 12.8 0 0 1-5.53 3.02l-.77.19v-3.98c0-3.77-.03-4.01-.74-4.76a2.6 2.6 0 0 0-3.64-.12c-.65.62-.7.93-.7 3.86 0 3.8-.41 5.06-1.83 5.64-.86.35-1.14.35-2.04-.09-1.26-.58-1.32-.86-1.45-5.21-.09-3-.18-3.37-.83-4.08a2.54 2.54 0 0 0-3.76 0c-.72.75-.75 1-.75 4.76l.03 3.98-.8-.19c-1.82-.4-4.66-2-5.67-3.24-1.76-2.04-1.86-4.6-.31-7.74 1.66-3.5 5.55-6.76 9.6-8.12 2.59-.9 6.81-.99 9.38-.25Z"/><path d="M160.55 221.92c-2.96.77-4.38 1.48-4.93 2.47-.84 1.48.43 3.67 2.13 3.67.46 0 1.63-.28 2.65-.65s3-.7 4.5-.8c4.51-.28 6.73.95 8.5 4.75.55 1.23 1.29 2.38 1.63 2.56 1.05.56 2.16.34 3.15-.61 1.14-1.15 1.07-2.07-.25-4.79a12.76 12.76 0 0 0-7.81-6.76c-2.31-.67-6.7-.61-9.57.16ZM211.53 221.73c-4.22 1.3-8.24 5.74-8.67 9.57-.12 1.14-.03 1.45.65 2.13 1.54 1.54 3.74.74 4.54-1.67a9.59 9.59 0 0 1 4.16-4.66c1.73-.8 5.25-.77 8.03.06 3.51 1.05 4.32 1.08 5.21.16.8-.77 1.02-2 .62-3.12-.28-.7-2.13-1.57-4.94-2.31-2.8-.71-7.56-.8-9.6-.16ZM185.37 237.44c-2.75 1.33-4.17 3.98-3.5 6.6.25 1.05.93 2.01 2.82 4.05 1.38 1.45 3.02 2.99 3.64 3.42l1.17.77.03 4.63c0 4.23-.06 4.78-.68 6.02-.4.74-1.08 1.6-1.51 1.94a5.5 5.5 0 0 1-6.11 0c-1.63-1.23-1.97-2.06-2.2-5.21-.18-2.62-.27-3.06-.89-3.55-1.17-.96-2.68-.86-3.64.22-.61.68-.7 1.1-.7 3.51 0 3.52.76 5.71 2.74 7.81a10.39 10.39 0 0 0 14.63.84l1.05-.9.68.7c1.01 1.09 3.36 2.26 5.33 2.66 3.37.68 7-.58 9.54-3.3 1.97-2.1 2.75-4.29 2.75-7.8 0-2.41-.1-2.85-.68-3.52a2.59 2.59 0 0 0-3.68-.22c-.61.5-.7.93-.89 3.55-.22 3.15-.56 3.98-2.2 5.21a5.5 5.5 0 0 1-6.1 0 6.82 6.82 0 0 1-1.48-1.94c-.65-1.24-.71-1.79-.71-6.02l.03-4.63 1.17-.77c.62-.43 2.25-1.97 3.64-3.42 1.88-2.04 2.56-3 2.81-4.05.59-2.25-.4-4.56-2.53-6.04-1.2-.84-1.2-.84-7.4-.9-4.85-.06-6.43 0-7.13.34Zm11.75 5.15c.28.47-4.22 4.91-4.97 4.91-.74 0-5.24-4.44-4.96-4.9.15-.22 1.72-.35 4.96-.35 3.25 0 4.82.13 4.97.34Z"/></g></svg>
